X: 107
T:Killiecrankie
M:2/4
L:1/16
K:G
GA| B2B2 B2AG| c4 c2BA| B2B2cBAG| B2d2 d2GA| B2B2cBAG|
c4 c2BA|BcdB A3 G| E2G2 G2Bc| d2D2 D2E=F| E2DE C2Bc| d2D2 d2D2|
B2d2 d2Bc| d2D2 D2E=F|G=FED C2 cc|BcdB A3 G| E2G2 G2 z2|

